!! 00000] TT[WS
!!!OTL: Shangao luyuan jianbushang
!!!ARE: Asia, China,ÿShanxi Hequ
!! Ethnic Group: Han
!! WI, 13
!!!SCT: J0014
!!!YEM: Copyright 1995, estate of Helmut Schaffrath.
**kern
*ICvox
*Ivox
*M2/4
*k[f#c#g#]
*A:
{8ccc#
4bb
16ccc#
16bb
=1
16aa
16ff#
16ee
16cc#
4b
=2
16bb
16bb
16bb
16bb
8ff#
16eee
16aa
=3
2bb}
=4
{8ccc#
4bb
16ccc#
16bb
=5
16aa
16ff#
16ee
16cc#
4b
=6
16bb
16bb
16bb
16bb
8ff#
16eee
16aa
=7
2ee}
==
!!!AGN: Shange, Shanqu. Qingge
!!!ONB: ESAC (Essen Associative Code) Database: CHINA
!!!AMT: simple duple
!!!AIN: vox
!!!EED: Helmut Schaffrath
!!!EEV: 1.0
*-
